icons/hiv_pos_fill.svg

<svg width="48" height="48" viewBox="0 0 48 48" fill="none" xmlns="http://www.w3.org/2000/svg">
<path fill-rule="evenodd" clip-rule="evenodd" d="M26.9237 4C27.8914 4 28.7899 4.21665 29.5913 4.67461C30.276 5.06587 31.0533 5.60468 31.6279 6.40924L31.6156 6.41806L31.6269 6.43315L33.9584 9.45546L33.9666 9.46626L34.7795 10.5501C35.9155 12.0505 36.5415 13.8151 36.6575 15.6068C36.1557 14.6515 35.1539 14 34 14C32.3431 14 31 15.3431 31 17C29.3431 17 28 18.3431 28 20C28 20.36 28.0634 20.7052 28.1797 21.0251L26.9658 19.4906L25.7551 17.9267L28.7743 14.027C28.1756 13.7018 27.4959 13.5093 26.8333 13.5093H21.5857C20.8665 13.5093 20.1663 13.6875 19.5739 14.0266L24.9969 21.0313L29.789 27.0891L37.2191 36.6521C37.8623 37.4799 37.7571 38.6639 36.9781 39.3654L32.9121 43.0268C32.0516 43.8018 30.7148 43.6861 30.0001 42.7749L23.424 34.3903L13.6468 21.9878L13.6409 21.98C11.109 18.6379 11.1085 13.9837 13.6394 10.641L13.6409 10.639L14.4522 9.55709L16.7886 6.52844C16.8241 6.48089 16.8604 6.43373 16.8974 6.38697C18.0073 4.84975 19.8516 4 21.6761 4H26.9237ZM18.7174 12.2146C19.6043 11.7394 20.6036 11.5093 21.5857 11.5093H26.8333C27.965 11.5093 29.0758 11.8619 30.0098 12.4317C31.0686 11.0296 31.076 9.05023 30.032 7.64012L29.932 7.5104L29.9466 7.49893C29.6182 7.07085 29.1501 6.726 28.599 6.4111C28.1338 6.14525 27.5847 6 26.9237 6H21.6761C20.4332 6 19.2104 6.58966 18.5089 7.57171L18.4982 7.5867L18.3831 7.73584C17.8657 8.43472 17.6094 9.25167 17.6094 10.0667C17.6094 10.8772 17.8617 11.7461 18.3445 12.4332C18.4663 12.3553 18.5907 12.2824 18.7174 12.2146Z" fill="black"/>
<path d="M31 19C30.4477 19 30 19.4477 30 20C30 20.5523 30.4477 21 31 21H33V23C33 23.5523 33.4477 24 34 24C34.5523 24 35 23.5523 35 23V21H37C37.5523 21 38 20.5523 38 20C38 19.4477 37.5523 19 37 19H35V17C35 16.4477 34.5523 16 34 16C33.4477 16 33 16.4477 33 17V19H31Z" fill="black"/>
<path d="M16.5675 29.728L21.4555 35.9317L21.4603 35.9378L22.6207 37.4174L18.3652 42.8432C17.6916 43.702 16.4538 43.8622 15.5838 43.2031L11.2054 39.8861C10.3155 39.212 10.1498 37.9399 10.8372 37.0604L16.5675 29.728Z" fill="black"/>
</svg>

<svg
  xmlns="http://www.w3.org/2000/svg"
  width="24"
  height="24"
  viewBox="0 0 24 24"
  fill="none"
  stroke="currentColor"
  stroke-width="2"
  stroke-linecap="round"
  stroke-linejoin="round"
>
  <path
    fill-rule="evenodd"
    d="M26.924 4c.967 0 1.866.217 2.667.675.685.39 1.462.93 2.037 1.734l-.012.01.01.014 2.332 3.022.009.011.813 1.084a9.37 9.37 0 0 1 1.877 5.057A3 3 0 0 0 31 17a3 3 0 0 0-2.82 4.025l-1.214-1.534-1.21-1.564 3.018-3.9c-.598-.325-1.278-.518-1.94-.518h-5.248c-.72 0-1.42.178-2.012.518l5.423 7.004 4.792 6.058 7.43 9.563a2 2 0 0 1-.24 2.713l-4.067 3.662A2 2 0 0 1 30 42.775l-6.576-8.385-9.777-12.402-.006-.008a9.414 9.414 0 0 1-.002-11.339l.002-.002.811-1.082 2.337-3.029.108-.141C18.007 4.85 19.852 4 21.677 4zm-8.207 8.215a6.1 6.1 0 0 1 2.869-.706h5.247c1.132 0 2.243.353 3.177.923a4.03 4.03 0 0 0 .022-4.792l-.1-.13.015-.011c-.329-.428-.797-.773-1.348-1.088C28.134 6.145 27.585 6 26.924 6h-5.248c-1.243 0-2.466.59-3.167 1.572l-.01.015-.116.149a3.9 3.9 0 0 0-.774 2.33c0 .811.253 1.68.735 2.367q.184-.116.373-.218"
    clip-rule="evenodd"
  />
  <path d="M31 19a1 1 0 1 0 0 2h2v2a1 1 0 1 0 2 0v-2h2a1 1 0 1 0 0-2h-2v-2a1 1 0 1 0-2 0v2z" />
  <path d="m16.568 29.728 4.887 6.204.005.006 1.16 1.48-4.255 5.425a2 2 0 0 1-2.781.36l-4.379-3.317a2 2 0 0 1-.368-2.826z" />
</svg>
